packages/devextreme-scss/images/icons/fluent/today.svg

<svg width="20" height="20" viewBox="0 0 20 20" xmlns="http://www.w3.org/2000/svg">
<title>today</title>
<path d="M14.5 3C15.8807 3 17 4.11929 17 5.5V14.5C17 15.8807 15.8807 17 14.5 17H11.5C11.5 17 11.5 16.6753 11.5 16.5V16H14.5C15.3284 16 16 15.3284 16 14.5V7H4V14.5C4 15.3284 4.67157 16 5.5 16H8.5V16.5C8.5 16.6753 8.5 17 8.5 17H5.5C4.11929 17 3 15.8807 3 14.5V5.5C3 4.11929 4.11929 3 5.5 3H14.5ZM14.5 4H5.5C4.67157 4 4 4.67157 4 5.5V6H16V5.5C16 4.67157 15.3284 4 14.5 4ZM11 9C11 9.55228 10.5523 10 10 10C9.44772 10 9 9.55228 9 9C9 8.44772 9.44772 8 10 8C10.5523 8 11 8.44772 11 9ZM11.8841 14.0701C11.7073 14.2822 11.392 14.3109 11.1799 14.1341L10.5 13.5675L10.5 17.5C10.5 17.7762 10.2761 18 9.99999 18C9.72385 18 9.49999 17.7762 9.49999 17.5V13.5675L8.82007 14.1341C8.60794 14.3109 8.29265 14.2822 8.11587 14.0701C7.93909 13.858 7.96775 13.5427 8.17989 13.3659L9.67989 12.1159C9.86531 11.9614 10.1347 11.9614 10.3201 12.1159L11.8201 13.3659C12.0322 13.5427 12.0609 13.858 11.8841 14.0701Z"></path>
</svg>

<!-- Generated by IcoMoon.io -->
<svg version="1.1" xmlns="http://www.w3.org/2000/svg" width="20" height="20" viewBox="0 0 20 20">
<path d="M14.5 3c1.381 0 2.5 1.119 2.5 2.5v9c0 1.381-1.119 2.5-2.5 2.5h-3c0 0 0-0.325 0-0.5v-0.5h3c0.828 0 1.5-0.672 1.5-1.5v-7.5h-12v7.5c0 0.828 0.672 1.5 1.5 1.5h3v0.5c0 0.175 0 0.5 0 0.5h-3c-1.381 0-2.5-1.119-2.5-2.5v-9c0-1.381 1.119-2.5 2.5-2.5h9zM14.5 4h-9c-0.828 0-1.5 0.672-1.5 1.5v0.5h12v-0.5c0-0.828-0.672-1.5-1.5-1.5zM11 9c0 0.552-0.448 1-1 1s-1-0.448-1-1 0.448-1 1-1c0.552 0 1 0.448 1 1zM11.884 14.070c-0.177 0.212-0.492 0.241-0.704 0.064l-0.68-0.567v3.932c0 0.276-0.224 0.5-0.5 0.5s-0.5-0.224-0.5-0.5v-3.933l-0.68 0.567c-0.212 0.177-0.527 0.148-0.704-0.064s-0.148-0.527 0.064-0.704l1.5-1.25c0.185-0.154 0.455-0.154 0.64 0l1.5 1.25c0.212 0.177 0.241 0.492 0.064 0.704z"></path>
</svg>
